flags/au-act.svg

<svg width="512" height="512" viewBox="0 0 512 512" fill="none" xmlns="http://www.w3.org/2000/svg">
<path d="M0 0H170L234 256L170 512H0V0Z" fill="var(--flag-palette-blue, #0052b4)"/>
<path d="M170 0H512V512H170V0Z" fill="var(--flag-palette-dark-yellow, #ffc635)"/>
<path d="M136.001 189L143.001 203.7L158.901 200L151.701 214.7L164.401 224.7L148.501 228.4V244.7L135.901 234.5L123.201 244.7V228.4L107.301 224.8L120.101 214.7L113.001 200L128.901 203.7L136.001 189ZM91.0008 146L98.0008 160.7L113.901 157L106.701 171.7L119.401 181.7L103.501 185.4V201.7L90.9008 191.5L78.2008 201.7V185.4L62.3008 181.8L75.1008 171.7L68.0008 157L83.9008 160.7L91.0008 146ZM110.001 238L115.601 255H133.401L118.901 265.5L124.401 282.5L109.901 272L95.5008 282.5L101.001 265.5L86.5008 255H104.501L110.001 238ZM40.0008 204L47.0008 218.7L62.9008 215L55.7008 229.7L68.4008 239.7L52.5008 243.4V259.7L39.9008 249.5L27.2008 259.7V243.4L11.3008 239.8L24.1008 229.7L17.0008 215L32.9008 218.7L40.0008 204ZM91.0008 303L85.0008 320L68.0008 312L76.0008 329L59.0008 335L76.0008 341L68.0008 358L85.0008 350L91.0008 367L97.0008 350L114.001 358L106.001 341L123.001 335L106.001 329L114.001 312L97.0008 320L91.0008 303Z" fill="var(--flag-palette-white, #eeeeee)"/>
<path d="M276 222C271.491 222 267.167 223.791 263.979 226.979C260.791 230.167 259 234.491 259 239H208C208 243.509 209.791 247.833 212.979 251.021C216.167 254.209 220.491 256 225 256C225 260.509 226.791 264.833 229.979 268.021C233.167 271.209 237.491 273 242 273C242 277.509 243.791 281.833 246.979 285.021C250.167 288.209 254.491 290 259 290H330V222H276Z" fill="var(--flag-palette-blue, #0052b4)"/>
<path d="M384 222C388.509 222 392.833 223.791 396.021 226.979C399.209 230.167 401 234.491 401 239H452C452 243.509 450.209 247.833 447.021 251.021C443.833 254.209 439.509 256 435 256C435 260.509 433.209 264.833 430.021 268.021C426.833 271.209 422.509 273 418 273C418 277.509 416.209 281.833 413.021 285.021C409.833 288.209 405.509 290 401 290H330V222H384Z" fill="var(--flag-palette-white, #eeeeee)"/>
<path d="M285.5 222V290C285.5 324 330 334 330 334C330 334 374.5 324 374.5 290V222H285.5Z" fill="var(--flag-palette-blue, #0052b4)"/>
<path d="M294.4 226L291.9 233.5L318.7 243.5L291.9 253.5L294.4 261L330 247.7L365.7 261L368.2 253.5L341.3 243.5L368.2 233.5L365.7 226L330 239.3L294.4 226ZM319.4 257.2V276H313.2V266.8H298.2V306H361.9V267.2H346.9V276H339.4V257.2H319.4Z" fill="var(--flag-palette-white, #eeeeee)"/>
<path d="M330 328.2C334.971 328.2 339 324.171 339 319.2C339 314.229 334.971 310.2 330 310.2C325.029 310.2 321 314.229 321 319.2C321 324.171 325.029 328.2 330 328.2Z" fill="var(--flag-palette-white, #eeeeee)"/>
</svg>

<svg xmlns="http://www.w3.org/2000/svg" width="512" height="512" fill="none"><g clip-path="url(#a)"><path fill="var(--flag-palette-blue, #0052b4)" d="M0 0h170l64 256-64 256H0z"/><path fill="var(--flag-palette-dark-yellow, #ffc635)" d="M170 0h342v512H170z"/><path fill="#EEE" d="m136 189 7 14.7 15.9-3.7-7.2 14.7 12.7 10-15.9 3.7v16.3l-12.6-10.2-12.7 10.2v-16.3l-15.9-3.6 12.8-10.1L113 200l15.9 3.7zm-45-43 7 14.7 15.9-3.7-7.2 14.7 12.7 10-15.9 3.7v16.3l-12.6-10.2-12.7 10.2v-16.3l-15.9-3.6 12.8-10.1L68 157l15.9 3.7zm19 92 5.6 17h17.8l-14.5 10.5 5.5 17-14.5-10.5-14.4 10.5 5.5-17L86.5 255h18zm-70-34 7 14.7 15.9-3.7-7.2 14.7 12.7 10-15.9 3.7v16.3l-12.6-10.2-12.7 10.2v-16.3l-15.9-3.6 12.8-10.1L17 215l15.9 3.7zm51 99-6 17-17-8 8 17-17 6 17 6-8 17 17-8 6 17 6-17 17 8-8-17 17-6-17-6 8-17-17 8z"/><path fill="var(--flag-palette-blue, #0052b4)" d="M276 222a17 17 0 0 0-17 17h-51a17 17 0 0 0 17 17 17 17 0 0 0 17 17 17 17 0 0 0 17 17h71v-68z"/><path fill="#EEE" d="M384 222a17 17 0 0 1 17 17h51a17 17 0 0 1-17 17 17 17 0 0 1-17 17 17 17 0 0 1-17 17h-71v-68z"/><path fill="var(--flag-palette-blue, #0052b4)" d="M285.5 222v68c0 34 44.5 44 44.5 44s44.5-10 44.5-44v-68z"/><path fill="#EEE" d="m294.4 226-2.5 7.5 26.8 10-26.8 10 2.5 7.5 35.6-13.3 35.7 13.3 2.5-7.5-26.9-10 26.9-10-2.5-7.5-35.7 13.3zm25 31.2V276h-6.2v-9.2h-15V306h63.7v-38.8h-15v8.8h-7.5v-18.8zm10.6 71a9 9 0 1 0 0-18 9 9 0 0 0 0 18"/></g><defs><clipPath id="a"><path fill="#fff" d="M0 0h512v512H0z"/></clipPath></defs></svg>
